packages/kaspersky-hexa-ui-icons/src/iconsSVGs/64x42/FlagCoc.svg

<svg xmlns="http://www.w3.org/2000/svg" width="64" height="42" fill="none" viewBox="0 0 64 42"><g clip-path="url(#a)"><rect width="64" height="42" fill="#fff" rx="5"/><path fill="url(#b)" d="M0 0h64v42H0z"/><path fill="#fff" fill-rule="evenodd" d="M30.8332 7.0001a.7.7 0 0 0-.42.14l-5.3002 3.9752a.7.7 0 0 1-.2502.1191l-5.3884 1.3471a.7.7 0 0 0-.1432.053l-5.3226 2.6612a.7.7 0 0 0-.3131.3131l-2.5139 5.028a.7.7 0 0 0 .0436.7013l2.4571 3.6857a.7.7 0 0 1 .1176.3882v3.6981c0 .1857.0737.3637.205.495l2.2382 2.2382a.7.7 0 0 0 .8081.1312l7.8009-3.9005a.7.7 0 0 1 .313-.0739h5.1814a.7.7 0 0 1 .4481.1622l8.0106 6.6756a.7.7 0 0 0 .4481.1622h4.972a.7.7 0 0 0 .5824-.3117l5.2746-7.912a.7.7 0 0 0 .1176-.3882V21.212a.7.7 0 0 0-.1176-.3882l-5.4824-8.2237L40.6038 5.94a.7.7 0 0 0-.6002-.3399h-.879c-.5627 0-.8444.6803-.4466 1.0781a.6315.6315 0 0 1 .1183.729l-1.0029 2.006a.7.7 0 0 1-.6261.3869h-3.3348a.7.7 0 0 1-.6261-.387l-1.013-2.026A.7.7 0 0 0 31.5673 7zm12.3666 29.4h-2.8l.905.9051a.7.7 0 0 0 .9899 0z" clip-rule="evenodd"/></g><defs><linearGradient id="b" x1="0" x2="0" y1="0" y2="42" gradientUnits="userSpaceOnUse"><stop stop-color="#19bfbf"/><stop offset="1" stop-color="#10acac"/></linearGradient><clipPath id="a"><rect width="64" height="42" fill="#fff" rx="5"/></clipPath></defs></svg>

<svg width="64" height="42" viewBox="0 0 64 42" fill="none" xmlns="http://www.w3.org/2000/svg">
<g clip-path="url(#clip0_37941_2391)">
<rect width="64" height="42" rx="5" fill="white"/>
<rect width="64" height="42" fill="url(#paint0_linear_37941_2391)"/>
<path fill-rule="evenodd" clip-rule="evenodd" d="M30.8332 7.0001C30.6818 7.0001 30.5344 7.04922 30.4132 7.1401L25.113 11.1153C25.0383 11.1713 24.9533 11.2118 24.8628 11.2344L19.4744 12.5815C19.4249 12.5938 19.3769 12.6116 19.3312 12.6345L14.0086 15.2957C13.8731 15.3635 13.7633 15.4733 13.6955 15.6088L11.1816 20.6368C11.0692 20.8614 11.0859 21.1291 11.2252 21.3381L13.6823 25.0238C13.759 25.1387 13.7999 25.2738 13.7999 25.412V29.1101C13.7999 29.2958 13.8736 29.4738 14.0049 29.6051L16.2431 31.8433C16.4562 32.0564 16.7817 32.1092 17.0512 31.9745L24.8521 28.074C24.9493 28.0254 25.0565 28.0001 25.1651 28.0001H30.3465C30.5102 28.0001 30.6688 28.0575 30.7946 28.1623L38.8052 34.8379C38.931 34.9427 39.0896 35.0001 39.2533 35.0001H44.2253C44.4593 35.0001 44.6779 34.8831 44.8077 34.6884L50.0823 26.7764C50.159 26.6615 50.1999 26.5264 50.1999 26.3882V21.212C50.1999 21.0738 50.159 20.9387 50.0823 20.8238L44.5999 12.6001L40.6038 5.93995C40.4773 5.72911 40.2494 5.6001 40.0036 5.6001H39.1246C38.5619 5.6001 38.2802 6.28037 38.678 6.67822C38.8702 6.87044 38.9179 7.1641 38.7963 7.40724L37.7934 9.41315C37.6748 9.6503 37.4324 9.8001 37.1673 9.8001H33.8325C33.5674 9.8001 33.325 9.6503 33.2064 9.41315L32.1934 7.38705C32.0748 7.1499 31.8324 7.0001 31.5673 7.0001H30.8332ZM43.1998 36.4001H40.3998L41.3048 37.3052C41.5782 37.5785 42.0214 37.5785 42.2947 37.3052L43.1998 36.4001Z" fill="white"/>
</g>
<defs>
<linearGradient id="paint0_linear_37941_2391" x1="0" y1="0" x2="0" y2="42" gradientUnits="userSpaceOnUse">
<stop stop-color="#19BFBF"/>
<stop offset="1" stop-color="#10ACAC"/>
</linearGradient>
<clipPath id="clip0_37941_2391">
<rect width="64" height="42" rx="5" fill="white"/>
</clipPath>
</defs>
</svg>
